images/50241469.svg

<?xml version="1.0" encoding="UTF-8"?>
<svg xmlns="http://www.w3.org/2000/svg" xmlns:xlink="http://www.w3.org/1999/xlink" width="300pt" height="300pt" viewBox="0 0 300 300" version="1.1">
<defs>
<g>
<symbol overflow="visible" id="glyph0-0">
<path style="stroke:none;" d="M 0.453125 1.59375 L 0.453125 -6.34375 L 4.953125 -6.34375 L 4.953125 1.59375 Z M 0.953125 1.09375 L 4.453125 1.09375 L 4.453125 -5.84375 L 0.953125 -5.84375 Z M 0.953125 1.09375 "/>
</symbol>
<symbol overflow="visible" id="glyph0-1">
<path style="stroke:none;" d="M 3.546875 -5.953125 C 2.898438 -5.953125 2.382812 -5.710938 2 -5.234375 C 1.625 -4.753906 1.4375 -4.101562 1.4375 -3.28125 C 1.4375 -2.445312 1.625 -1.789062 2 -1.3125 C 2.382812 -0.832031 2.898438 -0.59375 3.546875 -0.59375 C 4.191406 -0.59375 4.703125 -0.832031 5.078125 -1.3125 C 5.453125 -1.789062 5.640625 -2.445312 5.640625 -3.28125 C 5.640625 -4.101562 5.453125 -4.753906 5.078125 -5.234375 C 4.703125 -5.710938 4.191406 -5.953125 3.546875 -5.953125 Z M 3.546875 -6.6875 C 4.460938 -6.6875 5.195312 -6.375 5.75 -5.75 C 6.300781 -5.132812 6.578125 -4.3125 6.578125 -3.28125 C 6.578125 -2.238281 6.300781 -1.410156 5.75 -0.796875 C 5.195312 -0.179688 4.460938 0.125 3.546875 0.125 C 2.617188 0.125 1.878906 -0.179688 1.328125 -0.796875 C 0.773438 -1.410156 0.5 -2.238281 0.5 -3.28125 C 0.5 -4.3125 0.773438 -5.132812 1.328125 -5.75 C 1.878906 -6.375 2.617188 -6.6875 3.546875 -6.6875 Z M 3.546875 -6.6875 "/>
</symbol>
<symbol overflow="visible" id="glyph0-2">
<path style="stroke:none;" d="M 0.890625 -6.5625 L 2.078125 -6.5625 L 4.984375 -1.078125 L 4.984375 -6.5625 L 5.84375 -6.5625 L 5.84375 0 L 4.65625 0 L 1.75 -5.484375 L 1.75 0 L 0.890625 0 Z M 0.890625 -6.5625 "/>
</symbol>
<symbol overflow="visible" id="glyph0-3">
<path style="stroke:none;" d="M 0.890625 -6.5625 L 1.765625 -6.5625 L 1.765625 -3.875 L 5 -3.875 L 5 -6.5625 L 5.890625 -6.5625 L 5.890625 0 L 5 0 L 5 -3.125 L 1.765625 -3.125 L 1.765625 0 L 0.890625 0 Z M 0.890625 -6.5625 "/>
</symbol>
<symbol overflow="visible" id="glyph1-0">
<path style="stroke:none;" d="M 0.40625 1.421875 L 0.40625 -5.640625 L 4.40625 -5.640625 L 4.40625 1.421875 Z M 0.84375 0.96875 L 3.953125 0.96875 L 3.953125 -5.1875 L 0.84375 -5.1875 Z M 0.84375 0.96875 "/>
</symbol>
<symbol overflow="visible" id="glyph1-1">
<path style="stroke:none;" d="M 3.6875 -5.015625 L 3.6875 -2.84375 L 5.859375 -2.84375 L 5.859375 -2.171875 L 3.6875 -2.171875 L 3.6875 0 L 3.03125 0 L 3.03125 -2.171875 L 0.84375 -2.171875 L 0.84375 -2.84375 L 3.03125 -2.84375 L 3.03125 -5.015625 Z M 3.6875 -5.015625 "/>
</symbol>
</g>
</defs>
<g id="surface24761">
<rect x="0" y="0" width="300" height="300" style="fill:rgb(100%,100%,100%);fill-opacity:1;stroke:none;"/>
<path style="fill:none;stroke-width:1.2;stroke-linecap:butt;stroke-linejoin:miter;stroke:rgb(100%,0%,0%);stroke-opacity:1;stroke-miterlimit:10;" d="M 140.222656 167.460938 L 145.265625 178.929688 "/>
<path style="fill:none;stroke-width:1.2;stroke-linecap:butt;stroke-linejoin:miter;stroke:rgb(0%,0%,0%);stroke-opacity:1;stroke-miterlimit:10;" d="M 145.265625 178.929688 L 150.304688 190.398438 "/>
<path style="fill:none;stroke-width:1.2;stroke-linecap:butt;stroke-linejoin:miter;stroke:rgb(100%,0%,0%);stroke-opacity:1;stroke-miterlimit:10;" d="M 140.222656 167.460938 L 127.769531 166.09375 "/>
<path style="fill:none;stroke-width:1.2;stroke-linecap:butt;stroke-linejoin:miter;stroke:rgb(0%,0%,0%);stroke-opacity:1;stroke-miterlimit:10;" d="M 127.769531 166.09375 L 115.316406 164.722656 "/>
<path style=" stroke:none;fill-rule:nonzero;fill:rgb(100%,100%,100%);fill-opacity:1;" d="M 136.222656 161.960938 L 144.222656 161.960938 L 144.222656 172.960938 L 136.222656 172.960938 Z M 136.222656 161.960938 "/>
<g style="fill:rgb(100%,0%,0%);fill-opacity:1;">
  <use xlink:href="#glyph0-1" x="136.222656" y="170.624023"/>
</g>
<path style="fill:none;stroke-width:1.2;stroke-linecap:butt;stroke-linejoin:miter;stroke:rgb(0%,0%,0%);stroke-opacity:1;stroke-miterlimit:10;" d="M 115.316406 164.722656 L 100.492188 184.921875 "/>
<path style="fill:none;stroke-width:1.2;stroke-linecap:butt;stroke-linejoin:miter;stroke:rgb(0%,0%,0%);stroke-opacity:1;stroke-miterlimit:10;" d="M 109.082031 163.253906 L 97.222656 179.414062 "/>
<path style="fill:none;stroke-width:1.2;stroke-linecap:butt;stroke-linejoin:miter;stroke:rgb(0%,0%,0%);stroke-opacity:1;stroke-miterlimit:10;" d="M 105.238281 141.785156 L 115.316406 164.722656 "/>
<path style="fill:none;stroke-width:1.2;stroke-linecap:butt;stroke-linejoin:miter;stroke:rgb(0%,0%,0%);stroke-opacity:1;stroke-miterlimit:10;" d="M 100.492188 184.921875 L 75.589844 182.183594 "/>
<path style="fill:none;stroke-width:1.2;stroke-linecap:butt;stroke-linejoin:miter;stroke:rgb(0%,0%,0%);stroke-opacity:1;stroke-miterlimit:10;" d="M 75.589844 182.183594 L 66.238281 190.523438 "/>
<path style="fill:none;stroke-width:1.2;stroke-linecap:butt;stroke-linejoin:miter;stroke:rgb(0%,0%,100%);stroke-opacity:1;stroke-miterlimit:10;" d="M 66.238281 190.523438 L 56.886719 198.859375 "/>
<path style="fill:none;stroke-width:1.2;stroke-linecap:butt;stroke-linejoin:miter;stroke:rgb(0%,0%,0%);stroke-opacity:1;stroke-miterlimit:10;" d="M 65.507812 159.246094 L 75.589844 182.183594 "/>
<path style="fill:none;stroke-width:1.2;stroke-linecap:butt;stroke-linejoin:miter;stroke:rgb(0%,0%,0%);stroke-opacity:1;stroke-miterlimit:10;" d="M 71.914062 159.167969 L 79.976562 177.519531 "/>
<path style="fill:none;stroke-width:1.2;stroke-linecap:butt;stroke-linejoin:miter;stroke:rgb(0%,0%,100%);stroke-opacity:1;stroke-miterlimit:10;" d="M 56.886719 198.859375 L 46.070312 192.542969 "/>
<path style="fill:none;stroke-width:1.2;stroke-linecap:butt;stroke-linejoin:miter;stroke:rgb(0%,0%,0%);stroke-opacity:1;stroke-miterlimit:10;" d="M 46.070312 192.542969 L 35.25 186.230469 "/>
<path style=" stroke:none;fill-rule:nonzero;fill:rgb(100%,100%,100%);fill-opacity:1;" d="M 49.886719 193.359375 L 63.886719 193.359375 L 63.886719 204.359375 L 49.886719 204.359375 Z M 49.886719 193.359375 "/>
<g style="fill:rgb(0%,0%,100%);fill-opacity:1;">
  <use xlink:href="#glyph0-2" x="49.886719" y="202.022461"/>
  <use xlink:href="#glyph0-3" x="56.864258" y="202.022461"/>
</g>
<path style="fill:none;stroke-width:1.2;stroke-linecap:butt;stroke-linejoin:miter;stroke:rgb(0%,0%,0%);stroke-opacity:1;stroke-miterlimit:10;" d="M 35.25 186.230469 L 40.578125 161.746094 "/>
<path style="fill:none;stroke-width:1.2;stroke-linecap:butt;stroke-linejoin:miter;stroke:rgb(0%,0%,0%);stroke-opacity:1;stroke-miterlimit:10;" d="M 41.542969 185.035156 L 45.804688 165.449219 "/>
<path style="fill:none;stroke-width:1.2;stroke-linecap:butt;stroke-linejoin:miter;stroke:rgb(0%,0%,0%);stroke-opacity:1;stroke-miterlimit:10;" d="M 40.578125 161.746094 L 65.507812 159.246094 "/>
<path style="fill:none;stroke-width:1.2;stroke-linecap:butt;stroke-linejoin:miter;stroke:rgb(0%,0%,0%);stroke-opacity:1;stroke-miterlimit:10;" d="M 65.507812 159.246094 L 80.332031 139.046875 "/>
<path style="fill:none;stroke-width:1.2;stroke-linecap:butt;stroke-linejoin:miter;stroke:rgb(0%,0%,0%);stroke-opacity:1;stroke-miterlimit:10;" d="M 80.332031 139.046875 L 105.238281 141.785156 "/>
<path style="fill:none;stroke-width:1.2;stroke-linecap:butt;stroke-linejoin:miter;stroke:rgb(0%,0%,0%);stroke-opacity:1;stroke-miterlimit:10;" d="M 82.175781 145.179688 L 102.101562 147.371094 "/>
<path style="fill:none;stroke-width:1.2;stroke-linecap:butt;stroke-linejoin:miter;stroke:rgb(0%,0%,0%);stroke-opacity:1;stroke-miterlimit:10;" d="M 105.238281 141.785156 L 120.058594 121.585938 "/>
<path style="fill:none;stroke-width:1.2;stroke-linecap:butt;stroke-linejoin:miter;stroke:rgb(0%,0%,0%);stroke-opacity:1;stroke-miterlimit:10;" d="M 122.757812 120.398438 L 117.71875 108.929688 "/>
<path style="fill:none;stroke-width:1.2;stroke-linecap:butt;stroke-linejoin:miter;stroke:rgb(100%,0%,0%);stroke-opacity:1;stroke-miterlimit:10;" d="M 117.71875 108.929688 L 112.679688 97.460938 "/>
<path style="fill:none;stroke-width:1.2;stroke-linecap:butt;stroke-linejoin:miter;stroke:rgb(0%,0%,0%);stroke-opacity:1;stroke-miterlimit:10;" d="M 117.363281 122.773438 L 112.320312 111.304688 "/>
<path style="fill:none;stroke-width:1.2;stroke-linecap:butt;stroke-linejoin:miter;stroke:rgb(100%,0%,0%);stroke-opacity:1;stroke-miterlimit:10;" d="M 112.320312 111.304688 L 107.28125 99.832031 "/>
<path style="fill:none;stroke-width:1.2;stroke-linecap:butt;stroke-linejoin:miter;stroke:rgb(0%,0%,0%);stroke-opacity:1;stroke-miterlimit:10;" d="M 120.058594 121.585938 L 132.511719 122.953125 "/>
<path style="fill:none;stroke-width:1.2;stroke-linecap:butt;stroke-linejoin:miter;stroke:rgb(0%,0%,100%);stroke-opacity:1;stroke-miterlimit:10;" d="M 132.511719 122.953125 L 144.964844 124.324219 "/>
<path style=" stroke:none;fill-rule:nonzero;fill:rgb(100%,100%,100%);fill-opacity:1;" d="M 101.980469 93.148438 L 109.980469 93.148438 L 109.980469 104.148438 L 101.980469 104.148438 Z M 101.980469 93.148438 "/>
<g style="fill:rgb(100%,0%,0%);fill-opacity:1;">
  <use xlink:href="#glyph0-1" x="101.980469" y="101.811523"/>
</g>
<path style="fill:none;stroke-width:1.2;stroke-linecap:butt;stroke-linejoin:miter;stroke:rgb(0%,0%,100%);stroke-opacity:1;stroke-miterlimit:10;" d="M 144.964844 124.324219 L 150.007812 135.792969 "/>
<path style="fill:none;stroke-width:1.2;stroke-linecap:butt;stroke-linejoin:miter;stroke:rgb(0%,0%,0%);stroke-opacity:1;stroke-miterlimit:10;" d="M 150.007812 135.792969 L 155.046875 147.261719 "/>
<path style="fill:none;stroke-width:1.2;stroke-linecap:butt;stroke-linejoin:miter;stroke:rgb(0%,0%,0%);stroke-opacity:1;stroke-miterlimit:10;" d="M 159.789062 104.125 L 152.378906 114.222656 "/>
<path style="fill:none;stroke-width:1.2;stroke-linecap:butt;stroke-linejoin:miter;stroke:rgb(0%,0%,100%);stroke-opacity:1;stroke-miterlimit:10;" d="M 152.378906 114.222656 L 144.964844 124.324219 "/>
<path style=" stroke:none;fill-rule:nonzero;fill:rgb(100%,100%,100%);fill-opacity:1;" d="M 141.964844 118.824219 L 148.964844 118.824219 L 148.964844 129.824219 L 141.964844 129.824219 Z M 141.964844 118.824219 "/>
<g style="fill:rgb(0%,0%,100%);fill-opacity:1;">
  <use xlink:href="#glyph0-2" x="141.964844" y="127.487305"/>
</g>
<path style="fill:none;stroke-width:1.2;stroke-linecap:butt;stroke-linejoin:miter;stroke:rgb(0%,0%,0%);stroke-opacity:1;stroke-miterlimit:10;" d="M 155.046875 147.261719 L 179.953125 150 "/>
<path style="fill:none;stroke-width:1.2;stroke-linecap:butt;stroke-linejoin:miter;stroke:rgb(0%,0%,0%);stroke-opacity:1;stroke-miterlimit:10;" d="M 179.953125 150 L 187.363281 139.898438 "/>
<path style="fill:none;stroke-width:1.2;stroke-linecap:butt;stroke-linejoin:miter;stroke:rgb(0%,0%,100%);stroke-opacity:1;stroke-miterlimit:10;" d="M 187.363281 139.898438 L 194.777344 129.800781 "/>
<path style="fill:none;stroke-width:1.2;stroke-linecap:butt;stroke-linejoin:miter;stroke:rgb(0%,0%,100%);stroke-opacity:1;stroke-miterlimit:10;" d="M 194.777344 129.800781 L 189.734375 118.332031 "/>
<path style="fill:none;stroke-width:1.2;stroke-linecap:butt;stroke-linejoin:miter;stroke:rgb(0%,0%,0%);stroke-opacity:1;stroke-miterlimit:10;" d="M 189.734375 118.332031 L 184.695312 106.863281 "/>
<path style="fill:none;stroke-width:1.2;stroke-linecap:butt;stroke-linejoin:miter;stroke:rgb(0%,0%,100%);stroke-opacity:1;stroke-miterlimit:10;" d="M 194.777344 129.800781 L 207.230469 131.167969 "/>
<path style="fill:none;stroke-width:1.2;stroke-linecap:butt;stroke-linejoin:miter;stroke:rgb(0%,0%,0%);stroke-opacity:1;stroke-miterlimit:10;" d="M 207.230469 131.167969 L 219.683594 132.539062 "/>
<path style=" stroke:none;fill-rule:nonzero;fill:rgb(100%,100%,100%);fill-opacity:1;" d="M 184.777344 122.300781 L 205.777344 122.300781 L 205.777344 137.300781 L 184.777344 137.300781 Z M 184.777344 122.300781 "/>
<g style="fill:rgb(0%,0%,100%);fill-opacity:1;">
  <use xlink:href="#glyph0-2" x="184.777344" y="134.402344"/>
  <use xlink:href="#glyph0-3" x="191.754883" y="134.402344"/>
</g>
<g style="fill:rgb(0%,0%,100%);fill-opacity:1;">
  <use xlink:href="#glyph1-1" x="198.769531" y="129.519531"/>
</g>
<path style="fill:none;stroke-width:1.2;stroke-linecap:butt;stroke-linejoin:miter;stroke:rgb(0%,0%,0%);stroke-opacity:1;stroke-miterlimit:10;" d="M 184.695312 106.863281 L 159.789062 104.125 "/>
<path style="fill:none;stroke-width:1.2;stroke-linecap:butt;stroke-linejoin:miter;stroke:rgb(0%,0%,0%);stroke-opacity:1;stroke-miterlimit:10;" d="M 219.683594 132.539062 L 229.761719 155.476562 "/>
<path style="fill:none;stroke-width:1.2;stroke-linecap:butt;stroke-linejoin:miter;stroke:rgb(0%,0%,0%);stroke-opacity:1;stroke-miterlimit:10;" d="M 229.761719 155.476562 L 214.9375 175.675781 "/>
<path style="fill:none;stroke-width:1.2;stroke-linecap:butt;stroke-linejoin:miter;stroke:rgb(0%,0%,0%);stroke-opacity:1;stroke-miterlimit:10;" d="M 233.035156 160.984375 L 221.175781 177.144531 "/>
<path style="fill:none;stroke-width:1.2;stroke-linecap:butt;stroke-linejoin:miter;stroke:rgb(0%,0%,0%);stroke-opacity:1;stroke-miterlimit:10;" d="M 254.667969 158.214844 L 229.761719 155.476562 "/>
<path style="fill:none;stroke-width:1.2;stroke-linecap:butt;stroke-linejoin:miter;stroke:rgb(0%,0%,0%);stroke-opacity:1;stroke-miterlimit:10;" d="M 214.9375 175.675781 L 225.019531 198.613281 "/>
<path style="fill:none;stroke-width:1.2;stroke-linecap:butt;stroke-linejoin:miter;stroke:rgb(0%,0%,0%);stroke-opacity:1;stroke-miterlimit:10;" d="M 225.019531 198.613281 L 249.925781 201.351562 "/>
<path style="fill:none;stroke-width:1.2;stroke-linecap:butt;stroke-linejoin:miter;stroke:rgb(0%,0%,0%);stroke-opacity:1;stroke-miterlimit:10;" d="M 228.15625 193.027344 L 248.078125 195.21875 "/>
<path style="fill:none;stroke-width:1.2;stroke-linecap:butt;stroke-linejoin:miter;stroke:rgb(0%,0%,0%);stroke-opacity:1;stroke-miterlimit:10;" d="M 249.925781 201.351562 L 264.75 181.152344 "/>
<path style="fill:none;stroke-width:1.2;stroke-linecap:butt;stroke-linejoin:miter;stroke:rgb(0%,0%,0%);stroke-opacity:1;stroke-miterlimit:10;" d="M 264.75 181.152344 L 254.667969 158.214844 "/>
<path style="fill:none;stroke-width:1.2;stroke-linecap:butt;stroke-linejoin:miter;stroke:rgb(0%,0%,0%);stroke-opacity:1;stroke-miterlimit:10;" d="M 258.34375 181.230469 L 250.28125 162.878906 "/>
</g>
</svg>

<svg xmlns="http://www.w3.org/2000/svg" xmlns:xlink="http://www.w3.org/1999/xlink" width="300pt" height="300pt" viewBox="0 0 300 300"><defs><symbol overflow="visible"><path d="M.453 1.594v-7.938h4.5v7.938zm.5-.5h3.5v-6.938h-3.5zm0 0"/></symbol><symbol overflow="visible" id="a"><path d="M3.547-5.953c-.65 0-1.164.242-1.547.72-.375.48-.563 1.13-.563 1.952 0 .835.188 1.49.563 1.967.383.48.898.72 1.547.72.644 0 1.156-.24 1.53-.72.376-.476.564-1.132.564-1.968 0-.822-.187-1.474-.562-1.954-.375-.477-.887-.72-1.53-.72zm0-.734c.914 0 1.648.312 2.203.937.55.617.828 1.438.828 2.47 0 1.042-.277 1.87-.828 2.483-.555.617-1.29.922-2.203.922-.93 0-1.668-.305-2.22-.922C.774-1.41.5-2.237.5-3.28c0-1.033.273-1.853.828-2.47.55-.625 1.29-.938 2.22-.938zm0 0"/></symbol><symbol overflow="visible" id="b"><path d="M.89-6.563H2.08l2.906 5.485v-5.484h.86V0H4.656L1.75-5.484V0H.89zm0 0"/></symbol><symbol overflow="visible" id="c"><path d="M.89-6.563h.876v2.688H5v-2.688h.89V0H5v-3.125H1.766V0H.89zm0 0"/></symbol><symbol overflow="visible"><path d="M.406 1.422V-5.64h4V1.42zM.844.97h3.11v-6.157H.843zm0 0"/></symbol><symbol overflow="visible" id="d"><path d="M3.688-5.016v2.172h2.17v.672H3.69V0H3.03v-2.172H.845v-.672H3.03v-2.172zm0 0"/></symbol></defs><g><path fill="#fff" d="M0 0h300v300H0z"/><path d="M140.223 167.46l5.043 11.47" stroke-width="1.2" stroke="#f00" stroke-miterlimit="10" fill="none"/><path d="M145.266 178.93l5.04 11.468" stroke-width="1.2" stroke="#000" stroke-miterlimit="10" fill="none"/><path d="M140.223 167.46l-12.453-1.366" stroke-width="1.2" stroke="#f00" stroke-miterlimit="10" fill="none"/><path d="M127.77 166.094l-12.454-1.37" stroke-width="1.2" stroke="#000" stroke-miterlimit="10" fill="none"/><path d="M136.223 161.96h8v11h-8zm0 0" fill="#fff"/><use xlink:href="#a" x="136.223" y="170.624" fill="#f00"/><path d="M115.316 164.723l-14.824 20.2M109.082 163.254l-11.86 16.16M105.238 141.785l10.078 22.938M100.492 184.922l-24.902-2.738M75.59 182.184l-9.352 8.34" stroke-width="1.2" stroke="#000" stroke-miterlimit="10" fill="none"/><path d="M66.238 190.523l-9.35 8.336" stroke-width="1.2" stroke="#00f" stroke-miterlimit="10" fill="none"/><path d="M65.508 159.246l10.082 22.938M71.914 159.168l8.063 18.352" stroke-width="1.2" stroke="#000" stroke-miterlimit="10" fill="none"/><path d="M56.887 198.86l-10.817-6.317" stroke-width="1.2" stroke="#00f" stroke-miterlimit="10" fill="none"/><path d="M46.07 192.543l-10.82-6.313" stroke-width="1.2" stroke="#000" stroke-miterlimit="10" fill="none"/><path d="M49.887 193.36h14v11h-14zm0 0" fill="#fff"/><g fill="#00f"><use xlink:href="#b" x="49.887" y="202.022"/><use xlink:href="#c" x="56.864" y="202.022"/></g><path d="M35.25 186.23l5.328-24.484M41.543 185.035l4.262-19.586M40.578 161.746l24.93-2.5M65.508 159.246l14.824-20.2M80.332 139.047l24.906 2.738M82.176 145.18l19.926 2.19M105.238 141.785l14.82-20.2M122.758 120.398l-5.04-11.468" stroke-width="1.2" stroke="#000" stroke-miterlimit="10" fill="none"/><path d="M117.72 108.93l-5.04-11.47" stroke-width="1.2" stroke="#f00" stroke-miterlimit="10" fill="none"/><path d="M117.363 122.773l-5.043-11.468" stroke-width="1.2" stroke="#000" stroke-miterlimit="10" fill="none"/><path d="M112.32 111.305l-5.04-11.473" stroke-width="1.2" stroke="#f00" stroke-miterlimit="10" fill="none"/><path d="M120.06 121.586l12.452 1.367" stroke-width="1.2" stroke="#000" stroke-miterlimit="10" fill="none"/><path d="M132.512 122.953l12.453 1.37" stroke-width="1.2" stroke="#00f" stroke-miterlimit="10" fill="none"/><path d="M101.98 93.148h8v11h-8zm0 0" fill="#fff"/><use xlink:href="#a" x="101.98" y="101.812" fill="#f00"/><path d="M144.965 124.324l5.043 11.47" stroke-width="1.2" stroke="#00f" stroke-miterlimit="10" fill="none"/><path d="M150.008 135.793l5.04 11.47M159.79 104.125l-7.41 10.098" stroke-width="1.2" stroke="#000" stroke-miterlimit="10" fill="none"/><path d="M152.38 114.223l-7.415 10.1" stroke-width="1.2" stroke="#00f" stroke-miterlimit="10" fill="none"/><path d="M141.965 118.824h7v11h-7zm0 0" fill="#fff"/><use xlink:href="#b" x="141.965" y="127.487" fill="#00f"/><path d="M155.047 147.262L179.953 150M179.953 150l7.41-10.102" stroke-width="1.2" stroke="#000" stroke-miterlimit="10" fill="none"/><path d="M187.363 139.898l7.414-10.097M194.777 129.8l-5.043-11.468" stroke-width="1.2" stroke="#00f" stroke-miterlimit="10" fill="none"/><path d="M189.734 118.332l-5.04-11.47" stroke-width="1.2" stroke="#000" stroke-miterlimit="10" fill="none"/><path d="M194.777 129.8l12.453 1.368" stroke-width="1.2" stroke="#00f" stroke-miterlimit="10" fill="none"/><path d="M207.23 131.168l12.454 1.37" stroke-width="1.2" stroke="#000" stroke-miterlimit="10" fill="none"/><path d="M184.777 122.3h21v15h-21zm0 0" fill="#fff"/><g fill="#00f"><use xlink:href="#b" x="184.777" y="134.402"/><use xlink:href="#c" x="191.755" y="134.402"/></g><use xlink:href="#d" x="198.77" y="129.52" fill="#00f"/><path d="M184.695 106.863l-24.906-2.738M219.684 132.54l10.078 22.937M229.762 155.477l-14.825 20.2M233.035 160.984l-11.86 16.16M254.668 158.215l-24.906-2.738M214.938 175.676l10.082 22.937M225.02 198.613l24.906 2.74M228.156 193.027l19.922 2.192M249.926 201.352l14.824-20.2M264.75 181.152l-10.082-22.937M258.344 181.23l-8.063-18.35" stroke-width="1.2" stroke="#000" stroke-miterlimit="10" fill="none"/></g></svg>
